X: 27968
T: Mouse In The Meadow, The
R: reel
M: 4/4
K: Adorian
|EAAB cABd|cABA G3F|GAGF|EAAB cABd|1 cABG A3G:|2 cABG AB/^c/d||
e3^c d/e/dcd|efe^c d/e/dcd|efe^c d/e/ded|cABG AB^cd|
efe^c d/e/dcd|efe^c d/e/dcd|eage dged|cABd cAAG||

